speaky-school/img/illustration-p1.svg

<svg width="300" height="150" viewBox="0 0 300 150" fill="none" xmlns="http://www.w3.org/2000/svg">
<rect y="0.000244141" width="150" height="150" fill="#236967"/>
<path d="M74.9997 83.5715L110.357 150H39.6426L74.9997 83.5715Z" fill="#FC8B4C"/>
<path d="M74.9999 70.7144C78.6734 80.642 86.5008 88.4694 96.4284 92.1429C86.5008 95.8165 78.6734 103.644 74.9999 113.571C71.3263 103.644 63.4989 95.8165 53.5713 92.1429C63.4989 88.4694 71.3263 80.642 74.9999 70.7144Z" fill="#FDE9D4"/>
<path d="M75 0L75.554 1.4971C81.6311 17.9203 94.5797 30.8689 111.003 36.946L112.5 37.5L111.003 38.054C94.5797 44.1311 81.6311 57.0797 75.554 73.5029L75 75L74.446 73.5029C68.3689 57.0797 55.4203 44.1311 38.9971 38.054L37.5 37.5L38.9971 36.946C55.4203 30.8689 68.3689 17.9203 74.446 1.4971L75 0Z" fill="#FDE9D4"/>
<rect x="150" width="150" height="150" fill="#FC8B4C"/>
<path fill-rule="evenodd" clip-rule="evenodd" d="M229.464 47.5256H220.535V63.3049L209.216 52.1475L202.902 58.3707L214.221 69.528H198.214V78.329H214.222L202.903 89.487L209.216 95.7103L220.535 84.5531V100.332H229.464V84.5524L240.783 95.7103L247.097 89.487L235.777 78.329H251.785V69.528H235.778L247.097 58.3707L240.783 52.1475L229.464 63.3055V47.5256Z" fill="white"/>
<ellipse rx="5.35715" ry="5.35714" transform="matrix(-1 0 0 1 225 128.571)" fill="white"/>
<ellipse rx="5.35715" ry="5.35714" transform="matrix(-1 0 0 1 278.572 75)" fill="white"/>
<ellipse rx="5.35715" ry="5.35714" transform="matrix(-1 0 0 1 171.429 75)" fill="white"/>
<ellipse rx="5.35715" ry="5.35714" transform="matrix(-1 0 0 1 225 21.4287)" fill="white"/>
</svg>

<svg width="300" height="150" fill="none" xmlns="http://www.w3.org/2000/svg"><path fill="#236967" d="M0 0h150v150H0z"/><path d="M75 83.572L110.357 150H39.643L75 83.572z" fill="#FC8B4C"/><path d="M75 70.714a36.27 36.27 0 0 0 21.428 21.429A36.27 36.27 0 0 0 75 113.57 36.27 36.27 0 0 0 53.57 92.143 36.27 36.27 0 0 0 75 70.714z" fill="#FDE9D4"/><path d="M75 0l.554 1.497a60 60 0 0 0 35.449 35.449l1.497.554-1.497.554a60 60 0 0 0-35.449 35.449L75 75l-.554-1.497a60 60 0 0 0-35.449-35.449L37.5 37.5l1.497-.554A60 60 0 0 0 74.446 1.497L75 0z" fill="#FDE9D4"/><path fill="#FC8B4C" d="M150 0h150v150H150z"/><path fill-rule="evenodd" clip-rule="evenodd" d="M229.464 47.526h-8.929v15.779l-11.319-11.157-6.314 6.223 11.319 11.157h-16.007v8.801h16.008l-11.319 11.158 6.313 6.223 11.319-11.157v15.779h8.929v-15.78l11.319 11.158 6.314-6.223-11.32-11.158h16.008v-8.801h-16.007l11.319-11.157-6.314-6.224-11.319 11.159v-15.78z" fill="#fff"/><ellipse rx="5.357" ry="5.357" transform="matrix(-1 0 0 1 225 128.571)" fill="#fff"/><ellipse rx="5.357" ry="5.357" transform="matrix(-1 0 0 1 278.572 75)" fill="#fff"/><ellipse rx="5.357" ry="5.357" transform="matrix(-1 0 0 1 171.429 75)" fill="#fff"/><ellipse rx="5.357" ry="5.357" transform="matrix(-1 0 0 1 225 21.429)" fill="#fff"/></svg>
